images_sukapura_svg/cmd/32/beforeobject.svg

<svg height="32" viewBox="0 0 32 32" width="32" xmlns="http://www.w3.org/2000/svg" xmlns:xlink="http://www.w3.org/1999/xlink"><linearGradient id="a" gradientUnits="userSpaceOnUse" x1="-2" x2="-2" y1="56" y2="45"><stop offset="0" stop-color="#f5f5f5"/><stop offset="1" stop-color="#fff"/></linearGradient>


     /&amp;amp;gt;
 <path d="m4 16c-.554 0-1 .446-1 1v11c0 .554.446 1 1 1h14c.554 0 1-.446 1-1v-11c0-.554-.446-1-1-1zm0 1h14v11h-14z" fill="#98989d"/><path d="m4 17h14v11h-14z" fill="url(#a)"/><path d="m18.974609 2.9960938a10 10 0 0 0 -2 .203125v.03125a10 10 0 0 0 -7.974609 9.7910152 10 10 0 0 0 .0488281.97461h-.0234375a10 10 0 0 0 9.9492184 9 10 10 0 0 0 1.025391-.054688v.029297a10 10 0 0 0 9-9.949219 10 10 0 0 0 -2.376953-6.4667965 10 10 0 0 0 -.65625-.7070313 10 10 0 0 0 -.009766-.0078124 10 10 0 0 0 -6.982422-2.84375zm.001953.9726562a9.0277282 9.0277282 0 0 1 6.304688 2.5683594 9.0277282 9.0277282 0 0 1 .007812.0058594 9.0277282 9.0277282 0 0 1 .59375.6386718 9.0277282 9.0277282 0 0 1 2.144532 5.8378904 9.0277282 9.0277282 0 0 1 -8.125 8.982422v-.027344a9.0277282 9.0277282 0 0 1 -.925782.050782 9.0277282 9.0277282 0 0 1 -8.9804682-8.125h.0195312a9.0277282 9.0277282 0 0 1 -.0429688-.88086 9.0277282 9.0277282 0 0 1 7.1992188-8.8398435v-.0273437a9.0277282 9.0277282 0 0 1 1.804687-.1835938z" fill="#e4b500"/><path d="m18.977135 3.9689783a9.0277282 9.0277282 0 0 0 -1.805546.1833758v.028212a9.0277282 9.0277282 0 0 0 -7.1992597 8.8390619 9.0277282 9.0277282 0 0 0 .044081.879851h-.021158a9.0277282 9.0277282 0 0 0 8.9818847 8.124955 9.0277282 9.0277282 0 0 0 .925695-.04937v.02645a9.0277282 9.0277282 0 0 0 8.124955-8.981885 9.0277282 9.0277282 0 0 0 -2.145849-5.8380476 9.0277282 9.0277282 0 0 0 -.592445-.6382886 9.0277282 9.0277282 0 0 0 -.0088-.00705 9.0277282 9.0277282 0 0 0 -6.303541-2.5672602z" fill="#fc0" stroke-width=".902773"/></svg>

<?xml version="1.0" encoding="UTF-8" standalone="no"?>
<svg
   xmlns:dc="http://purl.org/dc/elements/1.1/"
   xmlns:cc="http://creativecommons.org/ns#"
   xmlns:rdf="http://www.w3.org/1999/02/22-rdf-syntax-ns#"
   xmlns:svg="http://www.w3.org/2000/svg"
   xmlns="http://www.w3.org/2000/svg"
   xmlns:xlink="http://www.w3.org/1999/xlink"
   xmlns:sodipodi="http://sodipodi.sourceforge.net/DTD/sodipodi-0.dtd"
   xmlns:inkscape="http://www.inkscape.org/namespaces/inkscape"
   viewBox="0 0 32 32"
   version="1.1"
   id="svg12"
   sodipodi:docname="objectforwardone.svg"
   inkscape:version="0.92.3 (unknown)"
   inkscape:export-filename="/home/rizmut/Dokumen/Rizmut/Github/libreoffice-style-sukapura/images_sukapura/cmd/32/objectforwardone.png"
   inkscape:export-xdpi="96"
   inkscape:export-ydpi="96"
   width="32"
   height="32"><metadata
   id="metadata18">
  <rdf:RDF>
    <cc:Work
       rdf:about="">
      <dc:format>image/svg+xml</dc:format>
      <dc:type
         rdf:resource="http://purl.org/dc/dcmitype/StillImage" />
      <dc:title></dc:title>
    </cc:Work>
  </rdf:RDF>
</metadata>
<defs
   id="defs16">
  <linearGradient
     gradientTransform="translate(-12,28)"
     y2="2"
     y1="16"
     x2="10"
     x1="10"
     gradientUnits="userSpaceOnUse"
     id="linearGradient1639">
    <stop
       id="stop1633"
       stop-color="#f5f5f5"
       offset="0" />
    <stop
       id="stop1637"
       stop-color="#fff"
       offset="1" />
  </linearGradient>
  <linearGradient
     inkscape:collect="always"
     xlink:href="#linearGradient1639"
     id="linearGradient1023"
     x1="10"
     y1="28"
     x2="10"
     y2="17"
     gradientUnits="userSpaceOnUse" />
</defs>
<sodipodi:namedview
   pagecolor="#ffffff"
   bordercolor="#666666"
   borderopacity="1"
   objecttolerance="10"
   gridtolerance="10"
   guidetolerance="10"
   inkscape:pageopacity="0"
   inkscape:pageshadow="2"
   inkscape:window-width="1366"
   inkscape:window-height="706"
   id="namedview14"
   showgrid="true"
   inkscape:zoom="8"
   inkscape:cx="26.86773"
   inkscape:cy="9.0382925"
   inkscape:window-x="0"
   inkscape:window-y="0"
   inkscape:window-maximized="1"
   inkscape:current-layer="svg12"
   inkscape:snap-global="false">
  <inkscape:grid
     type="xygrid"
     id="grid828"
     spacingx="0.5"
     spacingy="0.5"
     empspacing="2" />
</sodipodi:namedview>


     /&amp;gt;
 <g
   id="g1082">
  <path
     id="path4-7"
     d="m 4,16 c -0.554,0 -1,0.446 -1,1 v 11 c 0,0.554 0.446,1 1,1 h 14 c 0.554,0 1,-0.446 1,-1 V 17 c 0,-0.554 -0.446,-1 -1,-1 z m 0,1 H 18 V 28 H 4 Z"
     style="fill:#98989d;fill-opacity:1"
     inkscape:connector-curvature="0" />
  <path
     id="path6"
     d="M 4,17 H 18 V 28 H 4 Z"
     style="fill:url(#linearGradient1023);fill-opacity:1"
     inkscape:connector-curvature="0" />
  <g
     id="g1037">
    <path
       style="fill:#e4b500;fill-opacity:1"
       d="M 18.974609 2.9960938 A 10 10 0 0 0 16.974609 3.1992188 L 16.974609 3.2304688 A 10 10 0 0 0 9 13.021484 A 10 10 0 0 0 9.0488281 13.996094 L 9.0253906 13.996094 A 10 10 0 0 0 18.974609 22.996094 A 10 10 0 0 0 20 22.941406 L 20 22.970703 A 10 10 0 0 0 29 13.021484 A 10 10 0 0 0 26.623047 6.5546875 A 10 10 0 0 0 25.966797 5.8476562 A 10 10 0 0 0 25.957031 5.8398438 A 10 10 0 0 0 18.974609 2.9960938 z M 18.976562 3.96875 A 9.0277282 9.0277282 0 0 1 25.28125 6.5371094 A 9.0277282 9.0277282 0 0 1 25.289062 6.5429688 A 9.0277282 9.0277282 0 0 1 25.882812 7.1816406 A 9.0277282 9.0277282 0 0 1 28.027344 13.019531 A 9.0277282 9.0277282 0 0 1 19.902344 22.001953 L 19.902344 21.974609 A 9.0277282 9.0277282 0 0 1 18.976562 22.025391 A 9.0277282 9.0277282 0 0 1 9.9960938 13.900391 L 10.015625 13.900391 A 9.0277282 9.0277282 0 0 1 9.9726562 13.019531 A 9.0277282 9.0277282 0 0 1 17.171875 4.1796875 L 17.171875 4.1523438 A 9.0277282 9.0277282 0 0 1 18.976562 3.96875 z "
       id="path2" />
    <path
       inkscape:connector-curvature="0"
       id="path1030"
       d="m 18.977135,3.9689783 a 9.0277282,9.0277282 0 0 0 -1.805546,0.1833758 v 0.028212 a 9.0277282,9.0277282 0 0 0 -7.1992597,8.8390619 9.0277282,9.0277282 0 0 0 0.044081,0.879851 h -0.021158 a 9.0277282,9.0277282 0 0 0 8.9818847,8.124955 9.0277282,9.0277282 0 0 0 0.925695,-0.04937 v 0.02645 a 9.0277282,9.0277282 0 0 0 8.124955,-8.981885 9.0277282,9.0277282 0 0 0 -2.145849,-5.8380476 9.0277282,9.0277282 0 0 0 -0.592445,-0.6382886 9.0277282,9.0277282 0 0 0 -0.0088,-0.00705 9.0277282,9.0277282 0 0 0 -6.303541,-2.5672602 z"
       style="fill:#ffcc00;fill-opacity:1;stroke-width:0.90277284" />
  </g>
</g>
</svg>
